X:1
T:Ashur, LM
T:Anonymous, 1872
T:Ashur, LM
T:Public Domain
C:Anonymous, 1872
Z:Public Domain
%%score ( 1 2 ) ( 3 4 )
L:1/8
M:3/4
K:C
V:1 treble 
V:2 treble 
V:3 bass 
V:4 bass 
V:1
 C"^Bold and majestic"E C | G3 G [FA][FB] | [Fc]3 [^Fc] [Fc][Fc] | [GB][EA] [DG]2 [D^F]2 | %4
 [DG]3 C EC | G3 G [FA][FB] | [Ec][Gc] [^GB][GB] A[FA] | (G2 c2) d2 | [Ec]4 |] %9
V:2
 CE C | G3 G x2 | x6 | x6 | x3 C EC | G3 G x2 | x4 A x | E4 x2 | x4 |] %9
V:3
 C,E, C, | G,3 [E,C] [F,C][D,D] | [C,E]3 [D,D] [D,D][D,D] | [G,D][C,C] [D,B,]2 [D,A,]2 | %4
 [G,B,]3 C, E,C, | G,3 [E,C] [F,C][D,D] | [C,E][C,E] [E,E][E,D] [F,C][F,C] | (C2 G,2) [G,B,]2 | %8
 [C,C]4 |] %9
V:4
 C,E, C, | G,3 x3 | x6 | x6 | x3 C, E,C, | G,3 x3 | x6 | G,4 x2 | x4 |] %9

